X: 41163
T: Tripping On The Mountain
R: polka
M: 2/4
K: Dmajor
|:d/c/|dD FA|dD Dd/c/|dD FA|eE Ed/c/|
dD FA|Bg fe|d/c/B/A/ Bc|dD D:|
|:f/g/|a>f g>e|fd df/g/|af g/f/g/a/|be ef/g/|
af ge|fd fe|d/c/B/A/ B/c/d/e/|fd d:|

